X: 7163
T: Church On The Hill, The
R: jig
M: 6/8
K: Gmajor
A|:B/c/dB cAF|GDB, G,B,D|E^DE cBc|dBG AFD|
B/c/dB cAF|GDB, G,B,D|E^DE cBc|1 AFD G2A:|2 AFD G2d||
|:gfg bag|fdf afd|~g3 edB|cBc AFA|
gfg bag|fdf afd|cBc EFG|1 AFD G2d:|2 AFG G2A||

